!!!!SEGMENT: pl-wumfc--r311--002_paderewski-ignacy-jan--variations.krn
!!!cenid: 18xx:3385
!!!COM: Paderewski, Ignacy Jan
!!!COM-rismid: pe30029943
!!!CDT: 1860/11/18-1941/06/29
!!!CNT: Polish
!!!OTL: [Variations]
!!!PDT:
!!!AGN:
!!!SMS-siglum: PL-Wumfc
!!!SMS-shelfmark: R311
!!!SMS-shelfwork: 002 W
!!!SMS-variant:
!!!SMS-altvar:
!!!NIFC-rismid: 1001159532
!!!URL-scan: http://repozytorium.nifc.pl/skany/pl-wumfc--r311
!!!ONB-nifc: UWAGA: od skanu 0002
!!!key: F
!!!OMD: Andante cantabile
**kern	**kern	**dynam
*group1	*group1	*
*part2	*part1	*part1
*staff2	*staff1	*
*I"[Piano]	*I"[Piano]	*
*Ipiano	*Ipiano	*
*ICklav	*ICklav	*
*clefG2	*clefG2	*
*k[b-]	*k[b-]	*
*F:	*F:	*
*M6/8	*M6/8	*
*>[A,B,B1,B,B2,C,D,D1,D,D2,E,F,F1,F,F2,G,H,H1,H,H2,I,I1,I,I2]	*>[A,B,B1,B,B2,C,D,D1,D,D2,E,F,F1,F,F2,G,H,H1,H,H2,I,I1,I,I2]	*
=1	=1	=1
*>A	*>A	*
*	*tremolo	*
!	!	!LO:DY:b:t=p.
8c/L	16cc\LL	p
.	16ff\ 16aa\	.
8f/	16cc\	.
.	16ff\ 16aa\	.
8g/J	16cc\	.
.	16ff\ 16aa\	.
4.a/	16cc\	.
.	16ff\ 16aa\	.
.	16cc\	.
.	16ff\ 16aa\	.
.	16cc\	.
.	16ff\JJ 16aa\	.
=2	=2	=2
!	!LO:TX:t=P:problem=główki nut niepokolorowane w całym takcie	!
8g/L	16cc\LL	.
.	16gg\ 16bb-\	.
8d/	16cc\	.
.	16gg\ 16bb-\	.
8e/J	16cc\	.
.	16gg\JJ 16bb-\	.
4.f/	16cc\LL	.
.	16ff\ 16aa\	.
.	16cc\	.
.	16ff\ 16aa\	.
.	16cc\	.
.	16ff\JJ 16aa\	.
=3	=3	=3
8c/L	16cc\LL	.
.	16ff\ 16aa\	.
8d/	16cc\	.
.	16ff\ 16aa\	.
8e/J	16cc\	.
.	16ff\ 16aa\	.
8f/L	16cc\	.
.	16ff\ 16aa\	.
16g/L	16cc\	.
16f/	16ff\ 16aa\	.
16e/	16cc\	.
16f/JJ	16ff\JJ 16aa\	.
=4	=4	=4
8a/L	16ff\LL	.
.	16aa\ 16ccc\	.
8qcc/	.	.
8b-/	16ff\	.
.	16aa\ 16ccc\	.
8a/J	16ff\	.
.	16aa\ 16ccc\	.
4.g/	16ff\	.
.	16aa\JJ 16ccc\	.
!	!LO:TX:t=P:problem=all\right&colon; global	!
*	*2\left	*
.	32gg\LLL	.
.	32bb-\JJJ 32eee\	.
.	32bb-\LLL	.
.	32ccc\JJJ 32eee\	.
*	*8va	*
.	16eee\LL	.
.	16ggg\JJ 16bbb-\	.
*	*X8va	*
!!LO:LB:g=original
=5	=5	=5
8c/L	16cc\LL	.
.	16ff\ 16aa\	.
8f/	16cc\	.
.	16ff\ 16aa\	.
8g/J	16cc\	.
.	16ff\ 16aa\	.
4.a/	16cc\	.
.	16ff\ 16aa\	.
.	16cc\	.
.	16ff\ 16aa\	.
.	16cc\	.
.	16ff\JJ 16aa\	.
=6	=6	=6
*^	*	*
!	!	!LO:TX:t=P:problem=błąd w wyświetlaniu	!
4.a/	8.a\L	16gg#X\LL	.
.	.	16aa\ 16ccc	.
.	.	16gg#\	.
.	16ee\L	16aa\ 16ccc	.
.	16dd\	16gg#\	.
.	16cc\JJ	16aa\ 16ccc	.
4.ryy	4cc\	16gg#\	.
.	.	16aa\ 16ccc	.
.	.	16gg#\	.
.	.	16aa\JJ 16ccc	.
.	8b-\	32gg#\LLL	.
.	.	32bb-\ 32ddd	.
.	.	32gg#\	.
.	.	32bb-\JJJ 32ddd	.
*v	*v	*	*
=7	=7	=7
8d/L	32gg\LLL	.
.	32bb-\ 32ddd\	.
.	32gg\	.
.	32bb-\JJJ 32ddd\	.
8f#X/	32ff#X\LLL	.
.	32aa\ 32ccc\	.
.	32ff#\	.
.	32aa\JJJ 32ccc\	.
8g/J	32dd\LLL	.
.	32gg\ 32bb-\	.
.	32dd\	.
.	32gg\JJJ 32bb-\	.
4c/	16cc\LL	.
.	16ffn\ 16aa\	.
.	16cc\	.
.	16ffn\ 16aa\	.
8fn/	16cc\	.
.	16ffn\JJ 16aa\	.
=8	=8	=8
!	!LO:TX:t=P:problem=niepokolorowane główki; brak kropek w źródle	!
8e/L	16b-\LL	.
.	16cc\ 16gg\	.
8d/	16b-\	.
.	16cc\ 16gg\	.
8e/J	16b-\	.
.	16cc\JJ 16gg\	.
4f/	4a\ 4cc\ 4ff\	.
8r	8r	.
*clefF4	*Xtremolo	*
!!LO:LB:g=original
=9	=9	=9
*M3/4	*M3/4	*
!	!LO:TX:a:t=Valc \nI:rj	!
4FF\	[>2.cc:\ [>2.ff:\ [>2.aa:\ [>2.ccc:\	.
4C\ 4F\ 4A\	.	.
4C\ 4\F 4A\	.	.
=10	=10	=10
4AA\	4cc\] 4ff]\ 4aa]\ 4ccc]\	.
4C\ 4F\ 4A\	4.a\ 4.aa\	.
4C\ 4F\ 4A\	.	.
.	8f\ 8ff\	.
=11	=11	=11
4BB-\	2.e\ 2.ee\	.
4D\ 4G\	.	.
4D\ 4G\	.	.
=12	=12	=12
4BB-\	2.d\ 2.dd\	.
4D\ 4G\	.	.
4D\ 4G\	.	.
=13	=13	=13
4E\	4r	.
4G\ 4B-\ 4c\	4.b-/ 4.cc/	.
4G\ 4B-\ 4c\	.	.
.	8b-/ 8dd/	.
=14	=14	=14
4C\	4b-/ 4ee/	.
4G\ 4B-\ 4c\	4b-/ 4ff/	.
4G\ 4B-\ 4c\	4b-/ 4gg/	.
!!LO:LB:g=original
=15	=15	=15
4FF/	4cc\ 4ff\ 4bb-\	.
!LO:TX:t=P:problem=4\right&colon; global	!	!
4F\ 4A\ 4c\	4cc\ 4aa\	.
4F\ 4A\ 4c\	4cc\ 4ff\	.
=16	=16	=16
4C/	8e/L 8b-/ 8cc/	.
.	8e/J 8b-/ 8cc/	.
.	8qee/	.
4G\ 4B-\ 4c\	4dd\	.
4G\ 4B-\ 4c\	4cc\	.
=17	=17	=17
4FF\	[>2.cc\ [>2.ff\ [>2.aa\ [>2.ccc\	.
!LO:TX:t=P:problem=4\left&colon; global	!	!
4C\ 4F\ 4A\	.	.
4C\ 4F\ 4A\	.	.
=18	=18	=18
4C\ 4F 4A	4cc\] 4ff]\ 4aa]\ 4ccc]\	.
4r	4.cc\ 4.ccc\	.
4r	.	.
.	8cc#X\ 8ccc#X\	.
=19	=19	=19
!LO:TX:t=P:problem=all\right&colon; global	!	!
*2\left	*	*
4BB-\	2.dd:\ 2.gg:\ 2.bb-:\ 2.ddd:\	.
4F\ 4B-\ 4d\	.	.
4F#X\ 4B-\ 4d\	.	.
!!LO:LB:g=original
=20	=20	=20
4G\ 4B-\ 4d\	4cc\ 4aa\	.
.	8qccc/	.
4r	4bb-\	.
4r	4gg\	.
=21	=21	=21
!	!LO:TUP:a:problem=klamra łukowa	!
4C/	12ff\L	.
.	12gg\	.
.	12ff\J	.
4F\ 4A\ 4c\	4ee\	.
4F\ 4A\ 4c\	4ff\	.
=22	=22	=22
4GG/	2bn\ 2dd\ 2ff\ 2aa\	.
4F\ 4G\ 4Bn\	.	.
4F\ 4G\ 4B\	4b\ 4dd\ 4ff\ 4gg\	.
=23	=23	=23
4E\	4cc\$>	.
4G\ 4B-\ 4c\	8bn\L	.
.	8cc\	.
4C\	8dd\	.
.	8ee\J	.
=24	=24	=24
4FF\ 4F\	2a\ 2cc\ 2ff\	.
4ryy	.	.
!	!LO:TX:b:i:t=fine	!
4ryy	4r	.
!!LO:LB:g=original
=25||	=25||	=25||
.	8qa/ 8qcc/	.
4F\	4a\ 4cc\	.
4A\ 4c\	4r	.
4A\ 4c\	8a/	.
.	8cc\	.
=26	=26	=26
.	8qg#X/	.
4F\	4bn/	.
4Bn\ 4d\	4r	.
.	8qg#/	.
4B\ 4d\	4g#/ 4b/	.
=27	=27	=27
.	8qa/	.
4F\	4a\ 4dd\	.
4A\ 4c\	4r	.
.	8qa/	.
4A\ 4c\	4cc\	.
=28	=28	=28
*rep	*	*
.	8qa/	.
4F\	4cc\	.
4A\ 4c\	4r	.
.	8qcc/	.
4A\ 4c\	4ff\	.
*Xrep	*	*
=29	=29	=29
.	8qb-/	.
4C/	4ff\	.
4G\ 4B-\ 4c\	4r	.
.	8qb-/	.
4G\ 4B-\ 4c\	4b-\ 4ee\	.
!!LO:LB:g=original
=30	=30	=30
*rep	*	*
.	8qb-/	.
4C/	4ee\	.
4G\ 4B-\ 4c\	4r	.
.	8qb-/	.
4G\ 4B-\ 4c\	4dd\	.
*Xrep	*	*
=31	=31	=31
.	8qa/	.
4F\	4a\ 4dd\	.
4A\ 4c\	4r	.
.	8qa/	.
4A\ 4c\	4a\ 4cc\	.
=32	=32	=32
.	8qg#X/	.
4F\	4bn\	.
4Bn\ 4d\	4r	.
.	8qa/	.
4A\ 4c\	4a\ 4cc\	.
=33	=33	=33
.	8qa/	.
4F\	4a\ 4cc\	.
4A\ 4c	4r	.
.	8qa/	.
4A\ 4c	4a\ 4cc\	.
!!LO:PB:g=original
=34	=34	=34
.	8qg#X/	.
4F\	4bn/	.
4Bn\ 4d	4r	.
.	8qg#/	.
4B\ 4d	4b/	.
=35	=35	=35
.	8qa/	.
4F\	4a\ 4dd\	.
4A\ 4c	4r	.
.	8qa/	.
4A\ 4c	4a\ 4cc\	.
=36	=36	=36
*rep	*	*
.	8qa/	.
4F\	4cc\	.
4A\ 4c\	4r	.
.	8qf/	.
4A\ 4c\	4a/	.
*Xrep	*	*
=37	=37	=37
.	8qe/	.
4GG/	4a/	.
4C\ 4E\ 4G\	4r	.
.	8qe/	.
4C\ 4E\ 4G\	4g/	.
=38	=38	=38
4D\	8r	.
.	8f/ 8g/	.
4D\ 4F\ 4G\	4f/ 4a/	.
4D\ 4F\ 4G\	4f/ 4bn/	.
!!LO:LB:g=original
=39	=39	=39
4.C\ 4.E\ 4.G\	4.e\ 4.g\ 4.cc\	.
8CC\ 8C\	8cc\ 8ee\ 8gg\ 8ccc\	.
4CC\ 4C\	4cc\ 4ee\ 4gg\ 4ccc\	.
=40	=40	=40
!	!LO:TX:b:i:t=D. C. V.\nal fine	!
4CC\ 4C\	4cc\ 4ee\ 4gg\ 4ccc\	.
4ryy	4r	.
4ryy	4r	.
!!LO:LB:g=original
=41||	=41||	=41||
*k[]	*k[]	*
*C:	*C:	*
!	!LO:TX:a:i:t=II\na:rj	!
2.GG\ 2.G\	2g\ 2dd\ 2ff\	.
.	4g/	.
=42	=42	=42
2.GG\ 2.G\	2g\ 2cc\ 2ee\	.
.	4g/	.
=43	=43	=43
2.AA\ 2.G\	4.g\ 4.b\ 4.dd\	.
.	8g/	.
.	4g/	.
=44	=44	=44
2.ryy	4g/	.
.	4r	.
!	!LO:TX:t=P:4\left:problem	!
.	4gg\	.
=45||	=45||	=45||
*>B	*>B	*
4GG/	8ff#X\L	.
.	8gg\	.
4G\ 4B\ 4d\ 4f\	8aa\	.
.	8gg\	.
4G\ 4B\ 4d\ 4f\	8ff#\	.
.	8gg\J	.
!!LO:LB:g=original
=46	=46	=46
*rep	*	*
4GG/	8aa\L	.
.	8gg\	.
4G\ 4B\ 4d\ 4f\	8ff#X\	.
.	8gg\	.
4G\ 4B\ 4d\ 4f\	8aa\	.
.	8gg\J	.
*Xrep	*	*
=47	=47	=47
4G\	4ffn\	.
4B\ 4d\ 4f\	4b\ 4ff\ 4bb\	.
4B\ 4d\ 4f\	4b\ 4ff\ 4bb\	.
=48	=48	=48
*rep	*	*
4G\	2b\ 2ff\ 2bb\	.
4B\ 4d\ 4f\	.	.
4B\ 4d\ 4f\	4aa\	.
*Xrep	*	*
=49	=49	=49
4C/	8ff#X\L	.
.	8gg\	.
4E\ 4G\ 4c\	8aa\	.
.	8gg\	.
4E\ 4G\ 4B\	8ff#\	.
.	8gg\J	.
=50	=50	=50
4E\	8aa\L	.
.	8gg\	.
4G\ 4c\	8ff#X\	.
.	8gg\	.
4G\ 4c\	8aa\	.
.	8gg\J	.
!!LO:LB:g=original
=51	=51	=51
*rep	*	*
4E\	4ee\	.
4G\ 4c\	4ee\ 4gg\ 4ccc\	.
4G\ 4c\	4ee\ 4gg\ 4ccc\	.
*Xrep	*	*
=52	=52	=52
*rep	*	*
4E\	2ee\ 2gg\ 2ddd\	.
4G\ 4c\	.	.
4G\ 4c\	4ee\ 4gg\ 4ccc\	.
*Xrep	*	*
=53	=53	=53
*>B1	*>B1	*
!!LO:TX:a:t=1a volta
4GG/	8ccc\L$>	.
.	8bb\J	.
4G\ 4B\ 4\d 4f\	4.ff\ 4.fff\	.
4G\ 4B\ 4d\ 4f\	.	.
.	8bb\	.
=54	=54	=54
4G\	4.ee\ 4.eee\	.
4B\ 4d\ 4f\	.	.
.	8bb\	.
4B\ 4d\ 4f\	4dd\ 4ddd\	.
=55	=55	=55
*rep	*	*
4G\	8r	.
.	8bb\	.
4B\ 4d\ 4f\	4.ee\ 4.eee\	.
4B\ 4d\ 4f\	.	.
.	8bb\	.
*Xrep	*	*
!!LO:LB:g=original
=56	=56	=56
*rep	*	*
4G\	4.ff\ 4.ggg\	.
4B\ 4d\ 4f\	.	.
.	8bb\	.
4B\ 4d\ 4f\	4ff\ 4ddd\	.
*Xrep	*	*
=57	=57	=57
4C\	8ddd\L	.
.	8ccc\	.
4E\ 4G\ 4B\	8bb\	.
.	8ccc\	.
4E\ 4G\ 4c\	8ddd\	.
.	8ccc\J	.
=58	=58	=58
4E\	8bb\L	.
.	8ccc\	.
4G\ 4B\	8ddd\	.
.	8ccc\	.
4G\ 4B\	8bb\	.
.	8aa\J	.
=59	=59	=59
*rep	*	*
4E\	4gg\	.
4G\ 4B\	4ee\ 4ccc\	.
4G\ 4B\	4ee\ 4ccc\	.
*Xrep	*	*
!!LO:LB:g=original
=60	=60	=60
*rep	*	*
4E\	2ee\ 2ccc\	.
4G\ 4B\	.	.
4G\ 4B\	4gg\	.
*Xrep	*	*
=61	=61	=61
*>B2	*>B2	*
!!LO:TX:a:t=2a volta
4FF/	8bb\L$>	.
.	8aa\J	.
4F\ 4A\ 4d\	4gg\ 4fff\	.
4F\ 4A\ 4d\	4gg\ 4fff\	.
=62	=62	=62
4F\	2gg\ 2fff\	.
4A\ 4d\	.	.
4A\ 4d\	4aa\	.
=63	=63	=63
4GG/	8aa\L$>	.
.	8gg\J	.
4G\ 4c\ 4e\	4ee\ 4eee\	.
4G\ 4c\ 4e\	4ee\ 4eee\	.
=64	=64	=64
*rep	*	*
4GG/	2ee\ 2eee\	.
4G\ 4c\ 4e\	.	.
4G\ 4c\ 4e\	4gg\	.
*Xrep	*	*
!!LO:PB:g=original
=65	=65	=65
4GG/	8g/L	.
.	8a/	.
4G\ 4B\ 4d\ 4f\	8b/	.
.	8cc/	.
4G\ 4B\ 4d\ 4f\	8dd/	.
.	8ee/J	.
=66	=66	=66
.	8qaa/	.
4G\	8ff\L	.
.	8ee\	.
4B\ 4d\ 4f\	8ff\	.
.	8gg\	.
4B\ 4d\ 4f\	8aa\	.
.	8bb\J	.
=67	=67	=67
4c\ 4e\	4ee\ 4gg\ 4ccc\	.
4r	4r	.
4GG\ 4G\	4ff\ 4gg\ 4bb\	.
=68	=68	=68
4CC\ 4C\	4ee\ 4gg\ 4ccc\	.
4ryy	4r	.
4ryy	4r	.
!!LO:LB:g=original
=69||	=69||	=69||
*>C	*>C	*
*k[b-]	*k[b-]	*
*F:	*F:	*
!	!LO:TX:a:i:t=II\nb:rj	!
4FF/	2cc\ 2ff\ 2aa\ 2ccc\	.
4F\ 4A\ 4c\	.	.
*	*Xtuplet	*
4F\ 4A\ 4c\	12aa\L	.
.	12ff\	.
.	12cc\J	.
=70	=70	=70
4F\	4cc\ 4ff\ 4aa\ 4ccc\	.
4A\ 4c\	4r	.
4A\ 4c\	4cc\ 4ff\ 4aa\ 4ccc\	.
=71	=71	=71
4F\	4dd\ 4ff\ 4aa\ 4ddd\	.
4A\ 4d\	4r	.
4A\ 4d\	4dd\ 4ff\ 4aa\ 4ddd\	.
=72	=72	=72
4F\	4cc\ 4ff\ 4aa\ 4ccc\	.
4A\ 4c\	4r	.
4A\ 4c\	4r	.
=73	=73	=73
*rep	*	*
4FF\	2cc\ 2ff\ 2aa\ 2ccc\	.
4F\ 4A\ 4c\	.	.
4F\ 4A\ 4c\	12aa\L	.
.	12ff\	.
.	12cc\J	.
*Xrep	*	*
=74	=74	=74
*rep	*	*
4FF\	4cc\ 4ccc\	.
4F\ 4A\ 4c\	4r	.
4F\ 4A\ 4c\	4ff\ 4fff\	.
*Xrep	*	*
!!LO:LB:g=original
=75	=75	=75
4BB-/	4ee\ 4bb-\ 4eee\	.
4G\ 4B-\ 4d\	4r	.
4G\ 4B-\ 4d\	4dd\ 4bb-\ 4ddd\	.
=76	=76	=76
4G\	4dd\ 4bb-\ 4ddd\	.
4B-\ 4d\	4r	.
4B-\ 4d\	4r	.
=77	=77	=77
4BB-/	2dd:\ 2gg:\ 2bb-:\ 2ddd:\	.
4G\ 4B-\ 4d\	.	.
!	!LO:TX:t=P:problem=12\left	!
4G\ 4B-\ 4d\	12bb-\L	.
.	12gg\	.
.	12dd\J	.
=78	=78	=78
!LO:TX:t=P:4\left:problem	!	!
4G\	4dd\ 4bb-\ 4ddd\	.
4B-\ 4d\	4r	.
4B-\ 4d\	4dd\ 4bb-\ 4ddd\	.
=79	=79	=79
*rep	*	*
4G\	4ee\ 4bb-\ 4eee\	.
4B-\ 4d\	4r	.
4B-\ 4d\	4ee\ 4bb-\ 4eee\	.
*Xrep	*	*
=80	=80	=80
*rep	*	*
4G\	4dd\ 4bb-\ 4ddd\	.
4B-\ 4d\	4r	.
4B-\ 4d\	4r	.
*Xrep	*	*
!!LO:LB:g=original
=81	=81	=81
4C\	4ee\ 4bb-\ 4ddd\	.
4G\ 4B-\ 4c\	4r	.
4G\ 4B-\ 4c\	4ee\ 4ccc\	.
=82	=82	=82
4G\	4ee\ 4bb-\ 4ddd\	.
4B-\ 4c\	4r	.
4B-\ 4c\	4ee\ 4bb-\ 4ccc\	.
=83	=83	=83
4.DD\ 4.D\	4.dd\ 4.ddd\	.
8CC\ 8C\	8cc\ 8bb-\	.
4DD\ 4D\	4dd\ 4ddd\	.
=84	=84	=84
4CC\ 4C\	4cc\ 4ccc\	.
4r	4r	.
4r	4r	.
=85	=85	=85
4FF/	2cc\ 2ff\ 2aa\ 2ccc\	.
4F\ 4A\ 4c\	.	.
4F\ 4A\ 4c\	12aa\L	.
.	12ff\	.
.	12cc\J	.
=86	=86	=86
4F\	4cc\ 4ff\ 4aa\ 4ccc\	.
4B-\ 4c\	4r	.
4B-\ 4c\	4cc\ 4ff\ 4aa\ 4ccc\	.
!!LO:LB:g=original
=87	=87	=87
4F\	4dd\ 4ff\ 4aa\ 4ddd\	.
4A\ 4d\	4r	.
4A\ 4d\	4dd\ 4ff\ 4aa\ 4ddd\	.
=88	=88	=88
4F\	4cc\ 4ff\ 4aa\ 4ccc\	.
4A\ 4c\	4r	.
4A\ 4c\	4r	.
=89	=89	=89
*rep	*	*
4F\	2cc\ 2ff\ 2aa\ 2ccc\	.
4A\ 4c\	.	.
4A\ 4c\	12aa\L	.
.	12ff\	.
.	12cc\J	.
*Xrep	*	*
=90	=90	=90
*rep	*	*
4F\	4cc\ 4ccc\	.
4A\ 4c\	4r	.
4A\ 4c\	4cc#X\ 4ccc\	.
*Xrep	*	*
=91	=91	=91
4BB-\	4dd\ 4gg\ 4bb\- 4ddd\	.
4G\ 4B-\ 4d\	4r	.
4G\ 4B-\ 4d\	4dd\ 4bb-\ 4ddd\	.
=92	=92	=92
4G\	4dd\ 4bb-\ 4ddd\	.
4B-\ 4d\	4r	.
4B-\ 4d\	4r	.
!!LO:LB:g=original
=93	=93	=93
4BBB-/ 4BB-/	4.dd\ 4.gg\ 4.bb-\ 4.ddd\	.
4D\ 4G\ 4B-\	.	.
.	8dd\ 8gg\ 8bb-\ 8ddd\	.
4D\ 4G\ 4B-\	4dd\ 4gg\ 4bb-\ 4ddd\	.
=94	=94	=94
4BBBn/ 4BBn/	4.dd\ 4.gg#X\ 4.ddd\	.
4BB\ 4D\ 4F\ 4G#X\	.	.
.	8dd\ 8gg#\ 8ddd\	.
4BB\ 4D\ 4F\ 4G#\	4dd\ 4gg#\ 4ddd\	.
=95	=95	=95
4CC\ 4C\	2.ff\ 2.aa\ 2.ccc\ 2.fff\	.
4C\ 4F\ 4A\	.	.
4C\ 4F\ 4A\	.	.
=96	=96	=96
4C/	4r	.
4F\ 4A\	4.ee\ 4.eee\	.
4F\ 4A\	.	.
.	8dd\ 8ddd\	.
=97	=97	=97
4C/	2cc\ 2ccc\	.
4E\ 4G\ 4B-\	.	.
!	!LO:TX:t=P:problem=przednutki są dwie osobne, a nie jedna oktawowa, ale pewnie nawet jakbym to cudem zrobił, to i tak by się nie przeniosło	!
.	8qg/ 8qgg/	.
4E\ 4G\ 4B-\	4cc\ 4ccc\	.
=98	=98	=98
4E\	4r	.
4G\ 4B-\	4.dd\ 4.ddd\	.
4G\ 4B-\	.	.
.	8ee\ 8eee\	.
!!LO:LB:g=original
=99	=99	=99
4.C\ 4.F\ 4.A\	4.ff\ 4.aa\ 4.ccc\ 4.fff\	f
8FFF\ 8FF\	8ff\ 8aa\ 8ccc\ 8fff\	.
4FFF\ 4FF\	4ff\ 4aa\ 4ccc\ 4fff\	.
=100	=100	=100
2FFF\ 2FF\	2ff\ 2aa\ 2ccc\ 2fff\	.
4r	4r	.
=101||	=101||	=101||
!LO:TX:t=P:4\left:problem	!	!
!LO:TX:t=P:problem=wstęp do 3iej częsci. zanotowany na dole prawej strony zdjęcia 0005	!	!
4.F\ 4.A\ 4.c\ 4.e-X\	4r	.
!	!LO:TX:a:i:t=wstęp do 3iej cześci.	!
.	4a/	.
8r	.	.
4r	4b-/	.
=102	=102	=102
4F\ 4A\ 4c\ 4e-X\	4r	.
4r	4bn/	.
4r	4cc/	.
=103	=103	=103
4F\ 4A\ 4c\ 4e-X\	4r	.
4r	4ee\	.
4r	4ff\ 4gg\	.
=104	=104	=104
2.F:\ 2.A:\ 2.c:\ 2.e-X:\	2.f:\ 2.a:\ 2.cc:\ 2.ff:\	.
=105||	=105||	=105||
*k[b-e-]	*k[b-e-]	*
*B-:	*B-:	*
!	!LO:TX:a:i:t=III a	!
.	8qdd/	.
4BB-/	4.ff\	.
4F\ 4B-\ 4d\	.	.
.	8dd\	.
4F\ 4B-\ 4d\	4b-\	.
=106	=106	=106
*rep	*	*
.	8qdd/	.
4BB-/	4.ff\	.
4F\ 4B-\ 4d\	.	.
.	8dd\	.
4F\ 4B-\ 4d\	4b-\	.
*Xrep	*	*
!!LO:PB:g=original
=107	=107	=107
4EE-/	4.b-\ 4.ee-\ 4.gg\ 4.bb-\	.
4BB-/ 4E-/ 4G/	.	.
.	8b-\ 8ee-\ 8gg\ 8bb-\	.
4BB-/ 4E-/ 4G/	4b-\ 4ee-\ 4gg\ 4bb-\	.
=108	=108	=108
2BB-\ 2E-\ 2G\	2b-\ 2ee-\ 2gg\	.
4r	4r	.
=109	=109	=109
!	!LO:TX:t=P:problem=niepokolorwane główki nut	!
4FF/	4a\ 4ee-\ 4ff\	.
4F\ 4c\ 4e-\	4r	.
4F\ 4c\ 4e-\	4a\ 4ee-\ 4ff\	.
=110	=110	=110
4F\	8r	.
.	8a\ 8ee-\ 8ff\	.
4F\ 4c\ 4e-\	4a\ 4ee-\ 4gg\	.
4F\ 4c\ 4e-\	4a\ 4ee-\ 4ff\	.
=111	=111	=111
!	!LO:TX:t=P:problem=niepokolorwane główki nut	!
4BB-\	4b-\ 4dd\ 4ff\	.
4F\ 4B-\ 4d\	4r	.
4F\ 4B-\ 4d\	4b-\ 4dd\ 4ff\	.
!!LO:LB:g=original
=112	=112	=112
4F\	8r	.
.	8b-\ 8dd\ 8ff\	.
4F\ 4B-\ 4d\	4b-\ 4dd\ 4gg\	.
4F\ 4B-\ 4d\	4b-\ 4dd\ 4ff\	.
=113	=113	=113
.	8qdd/	.
4BB-/	4.ff\	.
4F\ 4B-\ 4d\	.	.
.	8dd\	.
4F\ 4B-\ 4d\	4b-\	.
=114	=114	=114
.	8qdd/	.
4F\	4.ff\	.
4B-\ 4d\	.	.
.	8dd\	.
4B-\ 4d\	4b-\	.
=115	=115	=115
4.EEn\ 4.En\	4.b-\ 4.dd-X\ 4.gg\ 4.bb-\	.
8EE\ 8E\	8b-\ 8dd-\ 8gg\ 8bb-\	.
4EE\ 4E\	4b-\ 4dd-\ 4gg\ 4bb-\	.
!!LO:LB:g=original
=116	=116	=116
2FF\ 2E-	2cc\ 2ee-\ 2gg\ 2ccc\	.
4r	4r	.
=117	=117	=117
4FF/	4a\ 4ee-\ 4ff\	.
4F\ 4c\ 4e-\	4r	.
4F\ 4c\ 4e-\	4a\ 4ee-\ 4ff\	.
=118	=118	=118
4F\	8r	.
.	8a\ 8ee-\ 8ff\	.
4c\ 4e-\	4a\ 4ee-\ 4gg\	.
4c\ 4e-\	4a\ 4ee-\ 4aa\	.
=119	=119	=119
4BB-\ 4B-\	4.b-\ 4.dd\ 4.ff\ 4.bb-\	.
4FF\ 4F\	.	.
.	8b-\ 8dd\ 8ff\ 8bb-\	.
4DD\ 4D\	4cc\ 4dd\ 4ff\ 4bb-\	.
=120	=120	=120
2BBB-\ 2BB-\	2b-\ 2dd\ 2ff\ 2bb-\	.
4r	4r	.
!!LO:LB:g=original
=121!|:	=121!|:	=121!|:
*>D	*>D	*
!	!LO:TX:a:i:t=III b:rj	!
2.ryy	8ryy	.
.	8dd\	.
.	4ff\	.
.	4ddd\	.
=122	=122	=122
4C\	4dd:\ 4ff:\ 4ccc:\	.
4F\ 4B-\ 4d\	4r	.
4F\ 4B-\ 4d\	4dd:\ 4ff:\ 4bb-:\	.
=123	=123	=123
4F\	8r	.
.	8dd\	.
4B-\ 4d\	4ff\	.
4B-\ 4d\	4bb-\	.
=124	=124	=124
.	8qee-/	.
4E-\	4aa\	.
4G\ 4c\	4r	.
.	8qcc/	.
4G\ 4c\	4gg\	.
!!LO:LB:g=original
=125	=125	=125
4E-\	8r	.
.	8ee-\	.
4G\ 4c\	4gg\	.
4G\ 4c\	4ddd\	.
=126	=126	=126
!	!LO:TX:t=P:4\left:problem	!
!	!LO:TX:t=P:problem=niepokolorowane główki	!
4FF/	4ee-:\ 4aa:\ 4ddd:\	.
4F\ 4c\ 4e-\	4r	.
!LO:TX:t=P:problem=ten znak repetycji i oznaczenie volty jest za wcześnie, powinny być trzy takty później	!	!
4F\ 4c\ 4e-\	4ee-\ 4aa\ 4ccc\	.
=127:|!	=127:|!	=127:|!
*>D1	*>D1	*
!!LO:TX:a:t=1a Volta
4F\	8r	.
!	!LO:TX:t=P:problem=jest oznaczenie pierwszej volty, brak drugiej	!
.	8ee-\	.
4c\ 4e-\	4aa\	.
4c\ 4e-\	4ddd\	.
=128	=128	=128
!	!LO:TX:t=P:4\left:problem	!
!LO:TX:t=P:problem=nieokreślony kierunek caudy	!LO:TX:t=P:problem=niepokolorwane główki	!
4BB-\ 4B-\	4dd\ 4ff\ 4ccc\	.
4F\ 4B-\ 4d\	4r	.
4F\ 4B-\ 4d\	4dd\ 4ff\ 4bb-\	.
=129	=129	=129
4F\ 4B-\ 4d\	2.ryy	.
4r	.	.
4r	.	.
!!LO:LB:g=original
=130	=130	=130
*>D2	*>D2	*
4F\	8r	.
.	8ee-\	.
4A\ 4c\ 4e-\	4ddd\	.
4A\ 4c\ 4e-\	4ccc\	.
=131	=131	=131
4A\	8r	.
.	8ee-\	.
4c\ 4e-\	4ddd\	.
4c\ 4e-\	4ccc\	.
=132	=132	=132
2BB-\ 2B-\	2dd\ 2ff\ 2bb-\	.
4r	4r	.
=133||	=133||	=133||
*>E	*>E	*
*k[f#]	*k[f#]	*
*G:	*G:	*
!	!LO:TX:a:i:t=IV a:rj	!
.	8qff#/	.
2GG\ 2G\	2gg\	.
4r	4r	.
=134	=134	=134
.	8qff#/	.
2GG\ 2G\	2gg\	.
4r	4r	.
!!LO:LB:g=original
=135	=135	=135
.	8qff#/	.
2GG\ 2G\	4gg\	.
.	4r	.
.	8qff#/	.
4r	4gg\	.
=136	=136	=136
.	8qff#/	.
2GG\ 2G\	2gg\	.
4r	4r	.
=137||	=137||	=137||
*k[]	*k[]	*
*C:	*C:	*
!LO:TX:t=P:problem=brak oznaczenia zmiany tonacji	!	!
.	8qff/	.
4CC/	4gg\	.
4E\ 4G\ 4c\	4r	.
.	8qff/	.
4E\ 4G\ 4c\	4gg\	.
=138	=138	=138
4C\ 4E\	4r	.
.	8qee/	.
4G\ 4c\	4gg\	.
4G\ 4c\	4r	.
=139	=139	=139
.	8qdd/	.
4C/	4gg\	.
4G\ 4c\	4r	.
4G\ 4c\	4r	.
=140	=140	=140
4E\	8r	.
.	8cc\	.
.	8qee/	.
4G\ 4c\	4dd\	.
4G\ 4c\	4cc\	.
!!LO:PB:g=original
=141	=141	=141
*>F	*>F	*
!	!LO:TX:a:i:t=IV b:rj	!
4GG/	4.cc\	.
4B\ 4d\ 4f\	.	.
.	8b\	.
4B\ 4d\ 4f\	4dd\	.
=142	=142	=142
4B\	8r	.
.	8b\	.
4d\ 4f\	4ff\	.
4d\ 4f\	4ee\	.
=143	=143	=143
4G\	4.ee\	.
4d\ 4f\	.	.
.	8dd\	.
4d\ 4f\	4b\	.
=144	=144	=144
*rep	*	*
4G\	8r	.
.	8b\	.
4d\ 4f\	4aa\	.
4d\ 4f\	4gg\	.
*Xrep	*	*
=145	=145	=145
.	8qff/	.
4CC/	4gg\	.
4E\ 4G\ 4c\	4r	.
.	8qff/	.
4E\ 4G\ 4c\	4gg\	.
!!LO:LB:g=original
=146	=146	=146
4C\ 4E\	4r	.
.	8qee/	.
4E\ 4G\ 4c\	4gg\	.
4E\ 4G\ 4c\	4r	.
=147	=147	=147
.	8qdd/	.
4C/	4gg\	.
4G\ 4c\	4r	.
.	8qcc/	.
4G\ 4c\	4gg\	.
=148	=148	=148
4E\	8r	.
.	8cc\	.
.	8qee/	.
4G\ 4c\	4dd\	.
4G\ 4c\	4cc\	.
=149	=149	=149
4DD/	4.b\	.
4F#X\ 4A\ 4c\	.	.
.	8a/	.
4F#\ 4A\ 4c\	4b\	.
=150	=150	=150
4D/	8r	.
.	8a/	.
.	8qcc/	.
4F\ 4A\ 4c\	4b/	.
4F\ 4A\ 4c\	4a/	.
=151	=151	=151
4.G\	4.g/	.
8GG\ 8BB\ 8D\ 8G\	8g\ 8b\ 8dd\ 8gg\	.
4GG\ 4BB\ 4D\ 4G\	4g\ 4b\ 4dd\ 4gg\	.
=152	=152	=152
4GG\ 4BB\ 4D\ 4G\	4g\ 4gg\	.
4r	4g\ 4gg\	.
4r	4g#X\ 4gg#X\	.
!!LO:LB:g=original
=153!|	=153!|	=153!|
4GG/	[<2.b:\ 2.dd:\ 2.ff:\ [>2.aa:\	.
4G\ 4B\ 4d\ 4f\	.	.
4G\ 4d\ 4f\	.	.
=154	=154	=154
4G\	4b\] 4dd\ 4ff\ 4aa]\	.
4B\ 4d\ 4f\	4.g\ 4.gg\	.
*rep	*	*
4B\ 4d\ 4f\	.	.
.	8f#X\ 8ff#X\	.
*Xrep	*	*
=155	=155	=155
*rep	*	*
4G\	4.g\ 4.gg\	.
4B\ 4d\ 4f\	.	.
.	8f#X\ 8ff#X\	.
4B\ 4d\ 4f\	4g\ 4gg\	.
*Xrep	*	*
=156	=156	=156
*rep	*	*
4G\	4b\ 4bb\	.
4B\ 4d\ 4f\	4a\ 4aa\	.
4B\ 4d\ 4f\	4g\ 4gg\	.
*Xrep	*	*
=157	=157	=157
4CC/	[<2.g:\ 2.cc:\ 2.ee:\ [>2.aa:\	.
4E\ 4G\ 4c\	.	.
4E\ 4G\ 4c\	.	.
=158	=158	=158
4E\	4g\] 4cc\ 4ee\ 4aa]\	.
4G\ 4c\	4.g\ 4.gg\	.
4A\ 4c\	.	.
.	8f#X\ 8ff#X\	.
=159	=159	=159
*rep	*	*
4E\	4.g\ 4.gg\	.
4G\ 4c\	.	.
.	8f#X\ 8ff#X\	.
4A\ 4c\	4g\ 4gg\	.
*Xrep	*	*
!!LO:LB:g=original
=160	=160	=160
*>F1	*>F1	*
*rep	*	*
!!LO:TX:a:t=1a Volta
4E\	4r	.
4G\ 4c\	4dd\ 4ddd\	.
4A\ 4c\	4cc\ 4ccc\	.
*Xrep	*	*
=161	=161	=161
4GG/	4cc\ 4ccc\	.
4G\ 4B\ 4d\ 4f\	4b\ 4bb\	.
*rep	*	*
4G\ 4B\ 4d\ 4f\	4r	.
*Xrep	*	*
=162	=162	=162
4G\	4r	.
4B\ 4d\ 4f\	4a\ 4aa\	.
*rep	*	*
4B\ 4d\ 4f\	4r	.
*Xrep	*	*
=163	=163	=163
!LO:TX:t=P:problem=brak znaku powtórzenia taktu 162	!	!
4G\yy	4r	.
4B\yy 4d\yy 4f\yy	4g\ 4gg\	.
4B\yy 4d\yy 4f\yy	4f\ 4ff\	.
=164	=164	=164
*rep	*	*
4G\	4e\ 4ee\	.
4B\ 4d\ 4f\	4e\ 4ee\	.
4B\ 4d\ 4f\	4f#X\ 4ff#X\	.
*Xrep	*	*
=165	=165	=165
4CC/	2a\ 2aa\	.
4E\ 4G\ 4c\	.	.
4E\ 4G\ 4c\	4g\ 4gg\	.
=166	=166	=166
4E\	2f#X\ 2ff#X\	.
4G\ 4c\	.	.
4G\ 4c\	4g\ 4gg\	.
!!LO:LB:g=original
=167	=167	=167
*rep	*	*
4E\	2.a\ 2.aa\	.
4G\ 4c\	.	.
4G\ 4c\	.	.
*Xrep	*	*
=168	=168	=168
2E\ 2G\ 2c\	4g\ 4gg\	.
.	4.g\ 4.gg\	.
4r	.	.
.	8g#X\ 8gg#X\	.
=169||	=169||	=169||
*>F2	*>F2	*
4E\	4r	.
*	*8va	*
4G\ 4c\	4ff\ 4fff\	.
4G\ 4c\	4ee\ 4eee\	.
=170	=170	=170
!!LO:TX:a:t=2 volta
4FF/	2dd\ 2ddd\	.
4F\ 4A\ 4c\	.	.
4F\ 4A\ 4c\	4cc\ 4ccc\	.
*	*X8va	*
=171	=171	=171
4F\	4r	.
4A\ 4c\	4a\ 4aa\	.
4A\ 4c\	4f\ 4ff\	.
=172	=172	=172
4GG/	2e\ 2ee\	.
4E\ 4G\ 4c\	.	.
4E\ 4G\ 4c\	4g\ 4gg\	.
=173	=173	=173
4E\	4r	.
4G\ 4B\	4f#X\ 4ff#X\	.
4G\ 4B\	4g\ 4gg\	.
=174	=174	=174
4GG/	2a\ 2aa\	.
4G\ 4B\ 4d\ 4f\	.	.
4G\ 4B\ 4d\ 4f\	4a#X\ 4aa#X\	.
!!LO:LB:g=original
=175	=175	=175
4G\ 4B\ 4d\ 4f\	4b\ 4bb\	.
2GG:\ 2B:\	4.ff\ 4.gg\ 4.bb\ 4.eee\	f
.	8ddd\	.
=176	=176	=176
2C\ 2c\	2ee\ 2gg\ 2ccc\	.
4GG\ 4G\	4ff\ 4gg\ 4bb\	.
=177	=177	=177
2CC\ 2C\	2ee\ 2gg\ 2ccc\	.
4r	4r	.
!!LO:PB:g=original
=178||	=178||	=178||
*>G	*>G	*
*k[b-]	*k[b-]	*
*F:	*F:	*
!LO:TX:t=P:problem=wstęp d. 5ej cześci. zanotowany na dole prawej strony zdjęcia 0005	!LO:TX:a:i:t=wstep d. 5ej czesci.	!
2.G\ 2.B-\	4cc\	.
.	4bn\	.
.	4cc\	.
=179	=179	=179
2.F\ 2.A\	4cc\	.
.	4b-\	.
.	4cc\	.
=180	=180	=180
[<2.C\ [>2.G\	4.cc\	.
.	8c/	.
.	4c/	.
=181	=181	=181
2C\] 2G]\	2c/	.
4r	4r	.
=182||	=182||	=182||
*>H	*>H	*
!	!LO:TX:a:i:t=5 a:rj	!
4FF/	4f/ 4a/	.
4C\ 4F\ 4A\	4r	.
4C\ 4F\ 4A\	4e/ 4a/	.
=183	=183	=183
4C/	4f^^>/ 4a/	.
4F\ 4A\	4r	.
4F\ 4A\	4d/ 4a/	.
=184	=184	=184
*rep	*	*
4C/	4e^^>/ 4a/	.
4F\ 4A\	4r	.
4F\ 4A\	4c/ 4a/	.
*Xrep	*	*
=185	=185	=185
*rep	*	*
4C/	2d^^>/ 2a/	.
4F\ 4A\	.	.
4F\ 4A\	4c/	.
*Xrep	*	*
=186	=186	=186
4FF/	4.f\ 4.dd\	.
4C\ 4F\ 4A\	.	.
.	8a/	.
4C\ 4F\ 4A\	4f\ 4dd\	.
=187	=187	=187
4C/	8r	.
.	8a/	.
4F\ 4A\	4.a\ 4.dd\	.
4F\ 4A\	.	.
.	8a/	.
!!LO:LB:g=original
=188	=188	=188
4BB-/	2.d/ 2.g/ 2.cc/	.
4D\ 4G\ 4B-\	.	.
4D\ 4G\ 4B-\	.	.
=189	=189	=189
4D\	2.d/ 2.g/ 2.b-/	.
4G\ 4B-\	.	.
4G\ 4B-\	.	.
=190	=190	=190
4C\	4g/ 4b-/	.
4E\ 4G\ 4B-\	4r	.
4E\ 4G\ 4B-\	4f/ 4b-/	.
=191	=191	=191
4E\	4f^^>/ 4b-/	.
4G\ 4B-\	4r	.
4G\ 4B-\	4d/ 4b-/	.
=192	=192	=192
4C/	4e^^>/ 4b-	.
4E\ 4G 4B-	4r	.
4E\ 4G 4B-	4c/ 4b-	.
=193	=193	=193
*rep	*	*
4C/	2d^^>/ 2b-	.
4E\ 4G 4B-	.	.
4E\ 4G 4B-	8b-/L	.
.	8b-/J	.
*Xrep	*	*
=194	=194	=194
!	!LO:TX:t=P:4\left:problem	!
4C/	4.g\ 4.dd\	.
4G\ 4B-\	.	.
.	8b-/	.
4G\ 4B-\	4g\ 4dd\	.
=195	=195	=195
*rep	*	*
4C/	8r	.
.	8b-/	.
4G\ 4B-\	4.g\ 4.dd\	.
4G\ 4B-\	.	.
.	8ff\	.
*Xrep	*	*
!!LO:LB:g=original
=196	=196	=196
.	8qa/	.
4FF/	2.f\ 2.dd\	.
4C\ 4F\ 4A\	.	.
4C\ 4F\ 4A\	.	.
=197	=197	=197
4C\	2.f\ 2.a\ 2.cc\	.
4F\ 4A\	.	.
4F\ 4A\	.	.
=198	=198	=198
4FF/	4f/ 4a/	.
4C\ 4F\ 4A\	4r	.
4C\ 4F\ 4A\	4e/ 4a/	.
=199	=199	=199
4C\	4f^^>/ 4a/	.
4F\ 4A\	4r	.
4F\ 4A\	4d/ 4a/	.
=200	=200	=200
*rep	*	*
4C\	4e^^>/ 4a/	.
4F\ 4A\	4r	.
4F\ 4A\	4c/ 4a/	.
*Xrep	*	*
=201	=201	=201
*rep	*	*
4C\	2.d^^>/ 2.a/	.
4F\ 4A\	.	.
4F\ 4A\	.	.
.	16qqg/LL	.
.	16qqa/JJ	.
*Xrep	*	*
=202	=202	=202
4BB-\ 4D\	4.f#X\ 4.ff#X\	.
4F\ 4A\ 4d\	.	.
.	8a/	.
4F\ 4A\ 4d\	4g\ 4dd\	.
=203||	=203||	=203||
!LO:TX:t=P::problem=w rękopisie volty zapisane odwrotnie&colon; najpierw druga, potem pierwsza	!	!
4F#X\	8r	.
.	8dd\	.
4B-\ 4d\	4a\ 4aa\	.
4B-\ 4d\	4b-\ 4bb-\	.
!!LO:LB:g=original
=204	=204	=204
4G\	2.b-\ 2.dd\ 2.aa\	.
4B-\ 4d\	.	.
4B-\ 4d\	.	.
=205	=205	=205
4G\	2.cc\ 2.dd\ 2.gg\	.
4B-\ 4d\	.	.
4B-\ 4d\	.	.
=206	=206	=206
4BB-/	4dd:\ 4gg:\ 4bb-:\ 4eee:\	.
4G\ 4B-\ 4d\	4r	.
4G\ 4B-\ 4d\	4dd\ 4gg\ 4bb-\ 4ddd\	.
=207	=207	=207
4G\	4dd\ 4gg\ 4ccc\	.
4B-\ 4d\	4r	.
4B-\ 4d\	4dd\ 4gg\ 4bb-\	.
=208	=208	=208
4FF/	4cc\ 4ff\ 4bb-\	.
4F\ 4A\ 4c\	4r	.
4F\ 4A\ 4c\	4cc\ 4ff\ 4aa\	.
=209	=209	=209
4D\	4a\ 4dd\ 4gg\	.
4F\ 4A\ 4d\	4r	.
4F\ 4A\ 4d\	4a\ 4dd\ 4ff\	.
=210	=210	=210
.	8qgg/	.
4GG/	4.bn\ 4.ff\	.
4G\ 4d\ 4f\	.	.
.	8ee\	.
4G\ 4d\ 4f\	4ff\	.
=211	=211	=211
4G\	4bn\ 4ff\ 4aa\	.
4d\ 4f\	4r	.
4d\ 4f\	4b\ 4gg\	.
*clefG2	*	*
=212	=212	=212
2c/ 2e/ 2g/ 2b-/	8ff\L	.
.	8ee\	.
.	8dd\	.
.	8cc\	.
4r	8bn\	.
.	8cc-X\J	.
*clefF4	*	*
=213||	=213||	=213||
*>H2	*>H2	*
!!LO:TX:a:t=2 volta
!LO:TX:t=P:problem=oznaczenia volt poprzestawiane?	!	!
4F\	8r	.
.	8dd\	.
4A\ 4d\	4a\ 4aa\	.
4B-\ 4d\	4a\ 4cc\	.
!!LO:LB:g=original
=214	=214	=214
.	8qa/	.
*	*2\right	*
4G\	2.cc\	.
4B-\ 4d\	.	.
4B-\ 4d\	.	.
=215	=215	=215
*rep	*2\left	*
4G\	2.g\ 2.b-\	.
4B-\ 4d\	.	.
4B-\ 4d\	.	.
*Xrep	*	*
=216	=216	=216
4BB-/	4d:/ 4g:/ 4b-:/	.
4D\ 4G\ 4B-\	4r	.
4D\ 4G\ 4B-\	4d/ 4b-	.
=217	=217	=217
4D\	4d/ 4a/	.
4G\ 4B-\ 4c\	4r	.
4G\ 4B-\	4d/ 4g/	.
=218	=218	=218
4CC/	4c/ 4g/	.
4C\ 4F\ 4A\	4r	.
4C\ 4F\ 4A\	4c/ 4f/	.
=219	=219	=219
4C/	4f\ 4dd\	.
4F\ 4A\	4r	.
4F\ 4A\	4f\ 4cc\	.
=220	=220	=220
4C/	4e/ 4cc/	.
4E\ 4G\ 4B-\	4r	.
4E\ 4G\ 4B-\	4e/ 4b-/	.
=221	=221	=221
4C/	4c/ 4e/	.
4E\ 4G\ 4B-\	4r	.
4E\ 4G\ 4B-\	4c/ 4e/	.
!!LO:LB:g=original
=222	=222	=222
8CC/L 8C/	8c/L 8f/ 8a/	.
8CC/J 8C/	8c/J 8e/ 8g/	.
4EE/ 4E/	4c/ 4f/ 4a/	.
4CC/ 4C/	4c/ 4e/ 4g/	.
=223||	=223||	=223||
2FF\ 2F\	2A/ 2c/ 2f/	.
4r	4r	.
=224	=224	=224
*>H1	*>H1	*
!!LO:TX:a:t=1a Volta
4F\	8r	.
.	8dd\	.
4A\ 4d\	4a\ 4aa\	.
4A\ 4d\	4b-\ 4bb-\	.
=225	=225	=225
4G\	2.b-\ 2.dd\ 2.gg\	.
4B-\ 4d\	.	.
4B-\ 4d\	.	.
=226	=226	=226
*rep	*	*
4G\	2.b-\ 2.dd\ 2.gg\	.
4B-\ 4d\	.	.
4B-\ 4d\	.	.
*Xrep	*	*
=227	=227	=227
4BB-/	4dd\: 4gg:\ 4bb-\ 4eee\	.
4G\ 4B-\ 4d\	4r	.
4G\ 4B-\ 4d\	4dd\ 4gg\ 4bb-\ 4ddd\	.
=228	=228	=228
4G\	4dd\ 4gg\ 4bb-\	.
4B-\ 4d\	4r	.
4B-\ 4d\	4dd\ 4gg\ 4bb-\	.
=229	=229	=229
!LO:SIC:v:s:t=4CC/	!	!
4DD/	4cc\ 4ff\ 4bb-\	.
4F\ 4A\ 4c\	4r	.
4F\ 4A\ 4c\	4cc\ 4ff\ 4aa\	.
=230	=230	=230
4D\	4a\ 4dd\ 4gg\	.
4F\ 4A\ 4d\	4r	.
4F\ 4A\ 4d\	4a\ 4dd\ 4ff\	.
!!LO:LB:g=original
=231	=231	=231
.	8qgg/	.
4GG/	4.bn\ 4ff\	.
4G\ 4d\ 4f\	.	.
.	8ee\	.
4G\ 4d\ 4d\	4ff\	.
=232	=232	=232
4G\	4bn\ 8ff\ 8aa\	.
4d\ 4f\	4r	.
4d\ 4f\	4bn\ 4gg\	.
=233	=233	=233
*clefG2	*	*
4c/ 4f/ 4a/ 4b-/	8ff\L	.
.	8ee\	.
4r	8dd\	.
.	8cc\	.
4r	8bn\	.
.	8b-X\J	.
!!LO:PB:g=original
=234:|	=234:|	=234:|
*>I	*>I	*
!LO:CL:ed	!	!
*clefF4	*	*
4DD/	8r	.
!	!LO:TX:a:i:t=5 b	!
.	8a/	.
4E\ 4F\ 4A\ 4d\	4.ff\ 4.aa\	.
4F\ 4A\ 4d\	.	.
.	8a/	.
=235	=235	=235
4F\	4.ff\ 4.aa\	.
4A\ 4c\	.	.
.	8a/	.
4A\ 4c\	4ff\ 4aa\	.
=236	=236	=236
4BBB-\ 4BB-\	4a\ 4ff\ 4aa\	.
4G\ 4B-\ 4d\	4.a\ 4.ee\ 4.gg\	.
4G\ 4B-\ 4d\	.	.
.	8a\ 8ee\ 8gg\	.
=237	=237	=237
4BB-\	2g\ 2ee\ 2gg\	.
4G\ 4B-\ 4d\	.	.
4G\ 4B-\ 4d\	4r	.
=238	=238	=238
4CC/	8r	.
.	8a\ 8ee\ 8gg\	.
4E\ 4G\ 4B-\ 4c\	4a\ 4ee\ 4gg\	.
4E\ 4G\ 4B-\ 4c\	4g\ 4dd\ 4ff\	.
=239	=239	=239
4E\	4g\ 4cc\ 4ee\	.
4G\ 4B-\ 4c\	4g\ 4b-\ 4dd\	.
4G\ 4B-\ 4c\	4a\ 4cc\	.
!!LO:LB:g=original
=240	=240	=240
4FF/	4b-\ 4dd\	.
4F\ 4A\ 4c\	4.a\ 4.cc\	.
4F\ 4A\ 4c\	.	.
.	8g#X\ 8bn\	.
=241	=241	=241
4F\	2.a\ 2.cc\	.
4A\ 4c\	.	.
4A\ 4c\	.	.
=242	=242	=242
4DD/	8r	.
.	8a/	.
4F\ 4A\ 4c\	4.ff\ 4.aa\	.
4F\ 4B-\ 4d\	.	.
.	8a/	.
=243	=243	=243
4F\	4.ff\ 4.aa\	.
4A\ 4c\	.	.
.	8a/	.
4A\ 4c\	4ff\ 4aa\	.
=244	=244	=244
*>I1	*>I1	*
!!LO:TX:a:t=1a volta
4GGG/ 4GG/	4cc\ 4ee\ 4gg\ 4ccc\	.
4G\ 4c\ 4e\	4.cc\ 4.ee\ 4.gg\	.
4G\ 4c\ 4e\	.	.
.	8g\ 8cc\ 8ee\	.
=245	=245	=245
2.G\ 2.c\ 2.e\	2.g\ 2.cc\ 2.ee\	.
!!LO:LB:g=original
=246	=246	=246
4DD\ 4D\	4.f#X\ 4.a\ 4.cc\ 4.ee\	.
4r	.	.
.	8f#\ 8a\ 8cc\ 8dd\	.
4DD\ 4D\	4f#\ 4a\ 4cc\ 4dd\	.
=247	=247	=247
4GGG\ 4GG\	4.fn\ 4.g\ 4.bn\ 4.ee\	.
4r	.	.
.	8f\ 8g\ 8b\ 8dd\	.
4GGG\ 4GG\	4f\ 4g\ 4b\ 4dd\	.
=248	=248	=248
4GGG\ 4GG\	8r	.
.	8f/ 8g/	.
4G\ 4Bn\ 4d\	4.f\ 4.g\ 4.bn\ 4.ee\	.
4G\ 4B\ 4d\	.	.
.	8f\ 8g\ 8b\ 8dd\	.
=249	=249	=249
4CC\ 4C\	4e\ 4g\ 4b-\	.
4r	4r	.
=250:|!	=250:|!	=250:|!
*>I2	*>I2	*
!!LO:TX:a:t=2 volta
4AA\ 4G\	4cc\ 4ee\ 4aa\	.
4G\ 4c\ 4e\	4.cc\ 4.ee\ 4.gg\	.
4G\ 4c\ 4e\	.	.
.	8cc\ 8ee\ 8gg\	.
=251	=251	=251
*2\right	*	*
2.G\ 2.c\ 2.e\	2.cc\ 2.ee 2.gg	.
!!LO:LB:g=original
=252	=252	=252
4G\	8r	.
.	8g\ 8gg\	.
4Bn\ 4d\ 4f\	4g\ 4gg\	.
4B\ 4d\ 4f\	4g#X\ 4ggn\	.
=253	=253	=253
4G\	4a\ 4gg\	.
4d\ 4f\	4a#X\ 4gg\	.
4d\ 4f\	4bn\ 4gg\	.
=254	=254	=254
4G\	8bn\L 8ee\ 8gg\	.
.	8b\J 8ee\ 8gg\	.
4d\ 4f\	4.b\ 4.ee\ 4.gg\	.
4d\ 4f\	.	.
.	8dd\	.
=255	=255	=255
*2\left	*	*
2G\ 2c\ 2e\	2cc\	.
4r	4r	.
==	==	==
*-	*-	*-
!!!system-decoration: {(g1)}
!!!RDF**kern: > = above
!!!RDF**kern: < = below
!!!AIN: 2 piano
!!!ENC: Solarz Mateusz
!!!END: 2021-12-07
!!!EED: Jędrzej Mróz
!!!EST: 2021-12-17
